X: 35911
T: Sandy Skinner
R: reel
M: 4/4
K: Dmajor
|:A|d2AF d2fe|d2AF BEEc|d2AF d2fe|d2AG FDD:|
G|FGAG FEDA|d2AF BEEG|FGAG FEDc|d2AG FDDG|
FGAG FEDA|d2AF BEEb|agfe dcBA|BdAG FD D||

